resources/haticons/SVG/stack.svg

<!-- Generated by IcoMoon.io -->
<svg version="1.1" xmlns="http://www.w3.org/2000/svg" width="24" height="24" viewBox="0 0 24 24">
<title>stack</title>
<path d="M24 7.5l-12-6-12 6 12 6 12-6zM12 3.491l8.017 4.009-8.017 4.009-8.017-4.009 8.017-4.009zM21.596 10.798l2.404 1.202-12 6-12-6 2.404-1.202 9.596 4.798zM21.596 15.298l2.404 1.202-12 6-12-6 2.404-1.202 9.596 4.798z"></path>
</svg>

<svg xmlns="http://www.w3.org/2000/svg" width="24" height="24"><path d="M24 7.5l-12-6-12 6 12 6 12-6zM12 3.491L20.017 7.5 12 11.509 3.983 7.5 12 3.491zm9.596 7.307L24 12l-12 6-12-6 2.404-1.202L12 15.596zm0 4.5L24 16.5l-12 6-12-6 2.404-1.202L12 20.096z"/></svg>
